Obsidian/actions/22s/align-vertical-baseline.svg

<svg xmlns="http://www.w3.org/2000/svg" width="22" height="22" viewBox="0 0 22 22">
 <defs>
  <style id="current-color-scheme" type="text/css">
   .ColorScheme-Text { color:#bebebe; } .ColorScheme-Highlight { color:#4285f4; }
  </style>
 </defs>
 <path style="fill:currentColor" class="ColorScheme-Text" d="M 6.859375 0 L 1.859375 14 L 0 14 L 0 16 L 16 16 L 16 14 L 14.140625 14 L 8.859375 0 L 6.859375 0 z M 7.859375 4 L 9.609375 9 L 6.109375 9 L 7.859375 4 z M 5.421875 11 L 10.296875 11 L 11.359375 14 L 4.359375 14 L 5.421875 11 z" transform="translate(3 3)"/>
</svg>

<svg height="22" viewBox="0 0 22 22" width="22" xmlns="http://www.w3.org/2000/svg"><path d="m6.859375 0-5 14h-1.859375v2h16v-2h-1.859375l-5.28125-14zm1 4 1.75 5h-3.5zm-2.4375 7h4.875l1.0625 3h-7z" fill="#bebebe" transform="translate(3 3)"/></svg>
